X:1
T:Title
%%score ( 1 2 ) ( 3 4 )
L:1/8
Q:1/4=86
M:6/8
K:D
V:1 treble nm="Grand Piano, Soprano"
V:2 treble 
V:3 bass nm="Choir Pad, The City of God"
V:4 bass 
V:1
 [DF]/[DE]<D[DE]/ DD[DE] | [DF][FA]>[FA] [GA] [FA]2 | [Fd][Gc][GB] [FA][GB][FA] | %3
w: By~Max~Hutchison~Rapp * * * * * *|||
 [EG] [DF]2- [DF]2- [DF]/ z/ | [CF]/[CE]<D[DE]/ DD[DE] | [DF][FA]>[FA] [GA] [FA]2 | %6
w: |||
 [=FB][Ec][^Fd] [Ec][DB][Ec] | z A2- A2- A/ z/ | [GA]/[GA]<[Fd][Fd]/ [Fd][FA]F | %9
w: |||
 [FA] [Gc]2 [Gc] [Gc]2 | [GA][Gc]>[Gc] [Gc][GB][Gc] | [GB] [FA]2- [FA]2- [FA]/ z/ | %12
w: |||
 [FA]/[FA]/[Fd][Fd] [Fd][FA]F | [FA][GB][GB] [GB] [Gd]2 | [Ac]/[GB]/[GB][GB] [FA][DF]D | %15
w: |||
 [CE] [A,D]2- [A,D]3- | [A,D]3 z3 |] %17
w: ||
V:2
 x6 | x6 | x6 | x6 | x6 | x6 | x6 | [DB]CC D E2 | x6 | x6 | x6 | x6 | x6 | x6 | x6 | x6 | x6 |] %17
V:3
 [D,A,]/[D,G,]<[D,F,][D,G,]/ [D,F,][D,F,][D,G,] | [D,A,][D,D]>[D,D] [E,C] [D,D]2 | %2
 [D,D][A,E][A,D] [A,C][A,C][A,C] | [A,,A,] [D,A,]2- [D,A,]2- [D,A,]/ z/ | %4
 [A,,A,]/[A,,G,]<[D,F,][D,G,]/ [D,F,][D,F,][D,G,] | [D,A,][D,D]>[D,D] [E,C] [D,D]2 | %6
 [D,A,][E,A,][E,A,] [E,A,][E,^G,][E,G,] | [E,^G,]A,E, F, =G,2 | %8
 [A,C]/[A,C]<[D,A,][D,A,]/ [D,A,][D,D][D,A,] | [D,D] [A,E]2 [A,E] [A,E]2 | %10
 [A,C][A,E]>[A,E] [A,E][A,D][A,E] | [A,C] [D,D]2- [D,D]2- [D,D]/ z/ | %12
 [D,D]/[D,D]/[D,A,][D,A,] [D,A,][D,D][D,A,] | [D,D][G,D][G,D] [G,D] [G,B,]2 | %14
 [G,C]/[G,D]/[A,D][A,D] [A,D][A,,A,][A,,F,] | [A,,G,] [D,F,]2- [D,F,]3- | [D,F,]3 z3 |] %17
V:4
 x6 | x6 | x6 | x6 | x6 | x6 | x6 | z A,,2- A,,2- A,,/ z/ | x6 | x6 | x6 | x6 | x6 | x6 | x6 | x6 | %16
 x6 |] %17

